svg/fluentui-system-icons/ic_fluent_people_call_24_filled.svg

<svg width="24" height="24" viewBox="0 0 24 24" fill="none" xmlns="http://www.w3.org/2000/svg">
<path d="M8 11C10.2091 11 12 9.20914 12 7C12 4.79086 10.2091 3 8 3C5.79086 3 4 4.79086 4 7C4 9.20914 5.79086 11 8 11ZM17 11C18.6569 11 20 9.65685 20 8C20 6.34315 18.6569 5 17 5C15.3431 5 14 6.34315 14 8C14 9.65685 15.3431 11 17 11ZM4.25 13C3.00736 13 2 14.0074 2 15.25V15.5C2 15.5 2 20 8 20C14 20 14 15.5 14 15.5V15.25C14 14.0074 12.9926 13 11.75 13H4.25ZM18.1924 13.9949L18.6679 12.7903C18.9104 12.1758 19.5886 11.8568 20.2161 12.0622L20.6472 12.2032C21.3714 12.4402 21.9726 13.0093 21.997 13.7719C22.0962 16.8829 19.5215 21.3545 16.7841 22.827C16.1109 23.1892 15.3158 22.9496 14.7485 22.4358L14.4118 22.1308C13.9231 21.6881 13.8611 20.9417 14.2702 20.4251L15.0701 19.4149C15.3603 19.0484 15.8368 18.8844 16.2909 18.9946L17.5822 19.308C18.6853 18.578 19.2765 17.5517 19.3557 16.2292L18.4395 15.2652C18.117 14.926 18.0206 14.4301 18.1924 13.9949Z" fill="#212121"/>
</svg>

<svg xmlns="http://www.w3.org/2000/svg" width="24" height="24"><path d="M8 11a4 4 0 1 0 0-8 4 4 0 0 0 0 8Zm9 0a3 3 0 1 0 0-6 3 3 0 0 0 0 6ZM4.25 13A2.25 2.25 0 0 0 2 15.25v.25S2 20 8 20s6-4.5 6-4.5v-.25A2.25 2.25 0 0 0 11.75 13h-7.5Zm13.942.995.476-1.205c.242-.614.92-.933 1.548-.728l.431.141c.724.237 1.326.806 1.35 1.569.1 3.11-2.476 7.583-5.213 9.055-.673.362-1.468.123-2.035-.391l-.337-.305a1.253 1.253 0 0 1-.142-1.706l.8-1.01c.29-.367.767-.53 1.22-.42l1.292.313c1.103-.73 1.694-1.756 1.774-3.079l-.917-.964a1.203 1.203 0 0 1-.247-1.27Z"/></svg>
